X:1
T:Chief O'Neill's Favourite
R:hornpipe
M:4/4
L:1/8
K:D
de|:fdfg afga|fg (3fec dBAG|FD~D2 FGAB|=cAd^c ~A2de|
|fdfg afga|fg (3fec dBAG|FDEF GBAG|1 FD~D2 D2de:|2 FD~D2 D2DE|]
|:~=F2FG AGAB|~=c2cd cBAG|Ad~d2 fded|cAdc A2de|
|fdfg afga|fg (3fec dBAG|FDEF GBAG|1 FD~D2 D2DE:|2 FD~D2 D2de|]